!!!OTL: ES GIENG EINST EIN VERLIEBTES PAAR
!!!ARE: Europa, Mitteleuropa, Deutschland, Franken
!!!SCT: E0052A
!!!YEM: Copyright 1995, estate of Helmut Schaffrath.
**kern
*ICvox
*Ivox
*M3/4
*k[f#]
*G:
{8d
=1
8d
8f#
4.g
8a
=2
8a
8b
4.b}
{8g
=3
8g
8b
8.dd
16cc
8b
8a
=4
4a
4g
8r}
{8dd
=5
8ee
8cc
4.cc
8ee
=6
8dd
8b
4.b}
{8dd
=7
8ee
8dd
4.cc
8b
=8
4b
4a
8r}
{8d
=9
8d
8g
4.g
8a
=10
8a
8b
4.b}
{8g
=11
8g
8b
8.dd
16cc
8b
8a
=12
4a
4g
8r}
==
!!!AGN: erzaehlendes Volks - Lied, Sage, Mord, Verfuehrung, Ballade ?
!!!ONB: ESAC (Essen Associative Code) Database: ERK1
!!!AMT: simple triple
!!!AIN: vox
!!!EED: Helmut Schaffrath
!!!EEV: 1.0
*-
